icons/Discover-Square.svg

<svg width="24" height="24" viewBox="0 0 24 24" fill="none" xmlns="http://www.w3.org/2000/svg">
<g id="Discover-Square">
<path id="Vector" d="M9.65 8.53L15 7.27C15.2374 7.22248 15.4828 7.2343 15.7144 7.30442C15.9461 7.37454 16.1569 7.50079 16.3281 7.67195C16.4992 7.84311 16.6255 8.05389 16.6956 8.28557C16.7657 8.51725 16.7775 8.76266 16.73 9L15.47 14.31C15.4043 14.5816 15.265 14.8298 15.0674 15.0274C14.8698 15.225 14.6216 15.3643 14.35 15.43L9 16.73C8.76266 16.7775 8.51725 16.7657 8.28557 16.6956C8.05389 16.6255 7.84311 16.4992 7.67195 16.3281C7.50079 16.1569 7.37454 15.9461 7.30442 15.7144C7.2343 15.4828 7.22248 15.2374 7.27 15L8.53 9.65C8.5957 9.37841 8.735 9.13018 8.93259 8.93259C9.13018 8.735 9.37841 8.5957 9.65 8.53Z" stroke="#00153F" stroke-width="1.5" stroke-miterlimit="10"/>
<path id="Vector_2" d="M12 13.36C12.7511 13.36 13.36 12.7511 13.36 12C13.36 11.2489 12.7511 10.64 12 10.64C11.2489 10.64 10.64 11.2489 10.64 12C10.64 12.7511 11.2489 13.36 12 13.36Z" stroke="#00153F" stroke-width="1.5" stroke-miterlimit="10"/>
<path id="Vector_3" d="M17 3H7C4.79086 3 3 4.79086 3 7V17C3 19.2091 4.79086 21 7 21H17C19.2091 21 21 19.2091 21 17V7C21 4.79086 19.2091 3 17 3Z" stroke="#00153F" stroke-width="1.5" stroke-miterlimit="10"/>
</g>
</svg>

<svg xmlns="http://www.w3.org/2000/svg" fill="none" viewBox="0 0 24 24"><g stroke="currentColor" stroke-miterlimit="10" stroke-width="1.5"><path d="M9.65 8.53 15 7.27A1.47 1.47 0 0 1 16.73 9l-1.26 5.31a1.52 1.52 0 0 1-1.12 1.12L9 16.73A1.47 1.47 0 0 1 7.27 15l1.26-5.35a1.52 1.52 0 0 1 1.12-1.12Z"/><path d="M12 13.36a1.36 1.36 0 1 0 0-2.72 1.36 1.36 0 0 0 0 2.72Z"/><path d="M17 3H7a4 4 0 0 0-4 4v10a4 4 0 0 0 4 4h10a4 4 0 0 0 4-4V7a4 4 0 0 0-4-4Z"/></g></svg>
